X:1
T:Title
%%score { ( 1 3 ) | 2 }
L:1/8
M:4/4
K:Bb
V:1 treble nm="Grand Piano"
V:3 treble 
V:2 bass 
V:1
 z4 z2[Q:1/4=112] D2 | F6 z2 | F6 z2 | [DF]2 [DG]>[CA] [DB]2 [DG]2 | [EB]4 A2 E2 | G6 z2 | G6 z2 | %7
 A2 A>A G2 A2 | [EG]4 [DF]2 [DF]2 | [Fd]3 [Fd] [Ec]2 [DB]2 | [DF]2 [EF]2 [DF]2 [DF]2 | %11
 [Fd]3 [Fd] [Fc]2 [FB]2 | [EG]2 [FG]2 [EG]2 G2 | B6 z2 |[M:9/8] f6- f z z |[M:4/4] d3 d c2 c2 | %16
[M:3/4] [DB]6 |] %17
V:2
 z8 | z2 [C,A,]2 [B,,B,]2 z2 | z2 [C,A,]>[C,A,] [B,,B,]2 [B,,F,]2 | %3
 [B,,B,]2 [B,,B,]>[B,,B,] [B,,F,]2 [B,,F,]2 | [C,F,]4 [F,E]2 z2 | z2 [F,A,]2 [F,A,]2 z2 | %6
 z2 [F,A,]>[F,A,] [F,A,]2 [F,A,E]2 | [F,CE]2 [F,CE]>[F,CE] [F,A,E]2 [F,CE]2 | %8
 [B,,B,]4 [B,,B,]2 [B,,B,]2 | [B,,B,]3 [B,,B,] [B,,F,]2 [B,,F,]2 | %10
 [B,,B,]2 [C,A,]2 [D,B,]2 [D,B,]2 | [B,,B,]3 [B,,B,] [C,A,]2 [D,B,]2 | [E,B,]2 [D,B,]2 [C,C]2 z2 | %13
 z2 [E,B,]2 [=E,_D]2 z2 |[M:9/8] z2 [F,D]- [F,D] [G,D]2- [G,D] [C,C]2 | %15
[M:4/4] [F,B,F]3 [F,B,F] [F,A,E]2 [F,A,E]2 |[M:3/4] [B,,F,]6 |] %17
V:3
 x8 | z2 E2 D2 G>D | z2 E>E D2 D2 | x8 | x8 | z2 E2 E2 A>E | z2 E>E E2 G2 | x8 | x8 | x8 | x8 | %11
 x8 | x8 | z2 G2 G2 B2 |[M:9/8] z2 B- B =B2- B [Ge]2 |[M:4/4] x8 |[M:3/4] x6 |] %17

